layouts/icon-pack/armor_amulet.svg

<?xml version="1.0" encoding="UTF-8"?>
<svg width="1200pt" height="1200pt" version="1.1" viewBox="0 0 1200 1200" xmlns="http://www.w3.org/2000/svg">
 <g fill="#fff">
  <path d="m930.75 62.812c-2.1094 0.63281-4.2188 1.2891-6.3281 1.9922-48.234 15.961-97.758 27.375-148.24 31.641-11.953 1.0078-24.422 1.9453-37.125 2.7422-50.551 3.1758-101.29 1.793-151.59-4.125-83.555-9.8438-303.7-20.062-441.68 117.98-5.2773 5.2148-10.293 10.691-15.023 16.406-121.38 143.98-90.914 365.48 63.422 470.88 20.605 14.098 42.359 26.43 65.039 36.867 15.57 7.0859 33.703 5.5781 47.891-3.9805 14.188-9.5625 22.395-25.801 21.672-42.895 0-1.3125-0.14062-2.6719-0.25781-4.0312-1.4766-15.738-10.32-29.844-23.836-38.039-41.695-25.125-145.31-101.18-119.86-224.27 0 0 36.539-175.64 259.69-219.73 33.09-6.3633 66.766-9.1992 100.45-8.4609 43.008 0.70312 122.09 3 180.59 10.523 36.43 4.8633 73.32 5.1914 109.83 0.98438 33.352-4.0078 71.836-12.094 105.33-28.125 17.742-8.4844 38.32-9.375 55.922-0.5625 5.5078 2.7812 10.641 6.2461 15.281 10.312 11.25 10.086 18.699 23.73 21.094 38.648 8.4375 48.422-19.312 211.48-128.91 367.78 0 0-99.961 145.01-393.89 166.57-21.094 1.5469-39.844 14.531-45.328 35.555-0.14062 0.49219-0.25781 1.0078-0.375 1.5-3.2656 12.93-1.1406 26.633 5.8828 37.969 7.0273 11.336 18.352 19.34 31.383 22.172 77.461 15.938 270.94 31.195 409.64-99.656 0 0 175.55-147.16 224.32-415.83 6.8047-40.492 9.3789-81.578 7.6875-122.6-5.2266-110.55-109.43-189-212.67-158.23z"/>
  <path d="m390.21 760.92c-9.8438-7.7305-22.359-11.23-34.785-9.7305s-23.746 7.875-31.473 17.723l-35.156 44.812c-23.031-6.2656-47.398-5.6055-70.059 1.8984-22.66 7.5-42.605 21.516-57.348 40.289l-72.047 91.688c-19.863 25.316-28.859 57.488-25.012 89.434 3.8516 31.949 20.234 61.062 45.543 80.934 25.316 19.875 57.488 28.879 89.441 25.031 31.953-3.8438 61.074-20.227 80.949-45.539l72-91.711c14.746-18.773 23.629-41.477 25.539-65.273 1.9102-23.793-3.2422-47.625-14.805-68.508l35.156-44.812c7.7148-9.8438 11.211-22.344 9.7227-34.762-1.4883-12.414-7.8438-23.734-17.668-31.473z"/>
 </g>
</svg>

<?xml version="1.0" encoding="UTF-8" standalone="no"?>
<!DOCTYPE svg PUBLIC "-//W3C//DTD SVG 1.1//EN" "http://www.w3.org/Graphics/SVG/1.1/DTD/svg11.dtd">
<svg width="100%" height="100%" viewBox="0 0 512 512" version="1.1" xmlns="http://www.w3.org/2000/svg" xmlns:xlink="http://www.w3.org/1999/xlink" xml:space="preserve" xmlns:serif="http://www.serif.com/" style="fill-rule:evenodd;clip-rule:evenodd;stroke-linejoin:round;stroke-miterlimit:2;">
    <g transform="matrix(1,0,0,1,-56.1011,-56.0637)">
        <g transform="matrix(0.47066,0,0,0.47066,29.6966,29.6768)">
            <path d="M930.75,62.812C928.641,63.445 926.531,64.101 924.422,64.804C876.188,80.765 826.664,92.179 776.182,96.445C764.229,97.453 751.76,98.391 739.057,99.187C688.506,102.363 637.767,100.98 587.467,95.062C503.912,85.219 283.767,75 145.787,213.042C140.51,218.257 135.494,223.733 130.764,229.448C9.384,373.428 39.85,594.928 194.186,700.328C214.791,714.426 236.545,726.758 259.225,737.195C274.795,744.281 292.928,742.773 307.116,733.215C321.304,723.652 329.511,707.414 328.788,690.32C328.788,689.007 328.647,687.648 328.53,686.289C327.053,670.551 318.21,656.445 304.694,648.25C262.999,623.125 159.384,547.07 184.834,423.98C184.834,423.98 221.373,248.34 444.524,204.25C477.614,197.886 511.29,195.051 544.974,195.789C587.982,196.492 667.064,198.789 725.564,206.312C761.994,211.175 798.884,211.503 835.394,207.296C868.746,203.288 907.23,195.202 940.724,179.171C958.466,170.687 979.044,169.796 996.646,178.609C1002.15,181.39 1007.29,184.855 1011.93,188.921C1023.18,199.007 1030.63,212.651 1033.02,227.569C1041.46,275.991 1013.71,439.049 904.111,595.349C904.111,595.349 804.15,740.359 510.221,761.919C489.127,763.466 470.377,776.45 464.893,797.474C464.752,797.966 464.635,798.481 464.518,798.974C461.252,811.904 463.377,825.607 470.401,836.943C477.428,848.279 488.753,856.283 501.784,859.115C579.245,875.053 772.724,890.31 911.424,759.459C911.424,759.459 1086.97,612.299 1135.74,343.629C1142.55,303.137 1145.12,262.051 1143.43,221.029C1138.2,110.479 1034,32.029 930.761,62.799L930.75,62.812Z" style="fill:white;fill-rule:nonzero;"/>
            <path d="M390.21,760.92C380.366,753.189 367.851,749.69 355.425,751.189C342.999,752.689 331.679,759.064 323.952,768.912L288.796,813.724C265.765,807.459 241.398,808.119 218.737,815.623C196.077,823.123 176.132,837.139 161.389,855.912L89.342,947.6C69.479,972.916 60.483,1005.09 64.33,1037.03C68.182,1068.98 84.564,1098.1 109.873,1117.97C135.189,1137.84 167.361,1146.85 199.314,1143C231.267,1139.15 260.388,1122.77 280.263,1097.46L352.263,1005.75C367.009,986.976 375.892,964.272 377.802,940.476C379.712,916.683 374.56,892.851 362.997,871.968L398.153,827.156C405.868,817.312 409.364,804.812 407.876,792.394C406.387,779.98 400.032,768.66 390.208,760.921L390.21,760.92Z" style="fill:white;fill-rule:nonzero;"/>
        </g>
    </g>
</svg>
